modules/hawcons-filled/icons/icon-100-document-file-ics.svg

<?xml version="1.0" encoding="UTF-8" standalone="no"?>
<svg width="32px" height="32px" viewBox="0 0 32 32" version="1.1" xmlns="http://www.w3.org/2000/svg" xmlns:xlink="http://www.w3.org/1999/xlink" xmlns:sketch="http://www.bohemiancoding.com/sketch/ns">
    <!-- Generator: Sketch 3.0.3 (7891) - http://www.bohemiancoding.com/sketch -->
    <title>icon 100 document file ics</title>
    <desc>Created with Sketch.</desc>
    <defs></defs>
    <g id="Page-1" stroke="none" stroke-width="1" fill="none" fill-rule="evenodd" sketch:type="MSPage">
        <g id="icon-100-document-file-ics" sketch:type="MSArtboardGroup" fill="#929292">
            <path d="M21,26 L21,28.0025781 C21,29.1090746 20.1057238,30 19.0025781,30 L3.99742191,30 C2.89092539,30 2,29.1012878 2,27.9926701 L2,5.00732994 C2,3.89833832 2.8992496,3 4.0085302,3 L14,3 L14,9.00189865 C14,10.1132936 14.8980806,11 16.0059191,11 L21,11 L21,13 L12.0068483,13 C10.3462119,13 9,14.3422643 9,15.9987856 L9,23.0012144 C9,24.6573979 10.3359915,26 12.0068483,26 L21,26 L21,26 Z M15,3 L15,8.99707067 C15,9.55097324 15.4509752,10 15.990778,10 L21,10 L15,3 L15,3 Z M11.9945615,14 C10.8929956,14 10,14.9001762 10,15.992017 L10,23.007983 C10,24.1081436 10.9023438,25 11.9945615,25 L29.0054385,25 C30.1070044,25 31,24.0998238 31,23.007983 L31,15.992017 C31,14.8918564 30.0976562,14 29.0054385,14 L11.9945615,14 L11.9945615,14 Z M14,17 L14,22 L13,22 L13,23 L16,23 L16,22 L15,22 L15,17 L16,17 L16,16 L13,16 L13,17 L14,17 L14,17 Z M21.9999916,21 C21.9968339,22.1165689 21.1004316,23 19.9951185,23 L19.0048815,23 C17.8938998,23 17,22.1019194 17,20.9940809 L17,18.0059191 C17,16.8865548 17.897616,16 19.0048815,16 L19.9951185,16 C21.1041209,16 21.9968142,16.8948834 21.9999915,18 L21,18 C21,17.4476291 20.5573397,17 20.0010434,17 L18.9989566,17 C18.4472481,17 18,17.4437166 18,17.9998075 L18,21.0001925 C18,21.5523709 18.4426603,22 18.9989566,22 L20.0010434,22 C20.5527519,22 21,21.5562834 21,21.0001925 L21.9999923,21 L21.9999916,21 L21.9999916,21 Z M25.0048815,16 C23.897616,16 23,16.8877296 23,18 C23,19.1045695 23.8877296,20 25,20 L25.9906311,20 C26.5480902,20 27,20.4438648 27,21 C27,21.5522847 26.5573397,22 26.0010434,22 L24.9989566,22 C24.4472481,22 24,21.543716 24,21.0044713 L24,20.9931641 L23,20.9931641 L23,20.998921 C23,22.1040864 23.8938998,23 25.0048815,23 L25.9951185,23 C27.102384,23 28,22.1122704 28,21 C28,19.8954305 27.1122704,19 26,19 L25.0093689,19 C24.4519098,19 24,18.5561352 24,18 C24,17.4477153 24.4426603,17 24.9989566,17 L26.0010434,17 C26.5527519,17 27,17.453186 27,18 L28,18 C28,16.8954305 27.1061002,16 25.9951185,16 L25.0048815,16 L25.0048815,16 Z" id="document-file-ics" sketch:type="MSShapeGroup"></path>
        </g>
    </g>
</svg>

<svg width="32" height="32" xmlns="http://www.w3.org/2000/svg"><path d="M21 26v2.003A1.995 1.995 0 0 1 19.003 30H3.997A2 2 0 0 1 2 27.993V5.007C2 3.898 2.9 3 4.009 3H14v6.002c0 1.111.898 1.998 2.006 1.998H21v2h-8.993A3.003 3.003 0 0 0 9 15.999V23A2.996 2.996 0 0 0 12.007 26H21zM15 3v5.997c0 .554.451 1.003.99 1.003H21l-6-7zm-3.005 11C10.893 14 10 14.9 10 15.992v7.016A2 2 0 0 0 11.995 25h17.01C30.107 25 31 24.1 31 23.008v-7.016A2 2 0 0 0 29.005 14h-17.01zM14 17v5h-1v1h3v-1h-1v-5h1v-1h-3v1h1zm8 4c-.003 1.117-.9 2-2.005 2h-.99A2.003 2.003 0 0 1 17 20.994v-2.988c0-1.12.898-2.006 2.005-2.006h.99c1.11 0 2.002.895 2.005 2h-1c0-.552-.443-1-.999-1h-1.002A.997.997 0 0 0 18 18v3c0 .552.443 1 .999 1h1.002A.997.997 0 0 0 21 21h1zm3.005-5A1.998 1.998 0 0 0 23 18c0 1.105.888 2 2 2h.99c.558 0 1.01.444 1.01 1 0 .552-.443 1-.999 1h-1.002c-.552 0-.999-.456-.999-.996v-.01h-1v.005A2 2 0 0 0 25.005 23h.99A1.998 1.998 0 0 0 28 21c0-1.105-.888-2-2-2h-.99c-.558 0-1.01-.444-1.01-1 0-.552.443-1 .999-1h1.002c.552 0 .999.453.999 1h1a2 2 0 0 0-2.005-2h-.99z" fill="#929292" fill-rule="evenodd"/></svg>
